app/dist/common/images/shimadzu.svg

<svg height="18" viewBox="0 0 18 18" width="18" xmlns="http://www.w3.org/2000/svg"><path d="m0 0h18v18h-18z" fill="#fe0002"/><path d="m9 15a6 6 0 1 0 0-12 6 6 0 0 0 0 12zm1-2.13a4 4 0 0 0 2.87-2.87h-2.87zm-2 0v-2.87h-2.87a4 4 0 0 0 2.87 2.87zm2-4.87h2.87a4 4 0 0 0 -2.87-2.87zm-2-2.87v2.87h-2.87a4 4 0 0 1 2.87-2.87z" fill="#fff" fill-rule="evenodd"/></svg>

<!-- by TradingView --><svg xmlns="http://www.w3.org/2000/svg" width="18" height="18" viewBox="0 0 18 18"><path fill="#FE0002" d="M0 0h18v18H0z"/><path fill-rule="evenodd" d="M9 15A6 6 0 1 0 9 3a6 6 0 0 0 0 12Zm1-2.13A4 4 0 0 0 12.87 10H10v2.87Zm-2 0V10H5.13A4 4 0 0 0 8 12.87ZM10 8h2.87A4 4 0 0 0 10 5.13V8ZM8 5.13V8H5.13A4 4 0 0 1 8 5.13Z" fill="#fff"/></svg>
